svgs/solid/display-medical.svg

<svg xmlns="http://www.w3.org/2000/svg" viewBox="0 0 576 512"><!--! Font Awesome Pro 6.6.0 by @fontawesome - https://fontawesome.com License - https://fontawesome.com/license (Commercial License) Copyright 2024 Fonticons, Inc. --><path d="M0 64C0 28.7 28.7 0 64 0L512 0c35.3 0 64 28.7 64 64l0 288c0 35.3-28.7 64-64 64l-176 0 10.7 32 69.3 0c17.7 0 32 14.3 32 32s-14.3 32-32 32l-256 0c-17.7 0-32-14.3-32-32s14.3-32 32-32l69.3 0L240 416 64 416c-35.3 0-64-28.7-64-64L0 64zm64 0l0 288 448 0 0-288L64 64zm192 64c0-8.8 7.2-16 16-16l32 0c8.8 0 16 7.2 16 16l0 48 48 0c8.8 0 16 7.2 16 16l0 32c0 8.8-7.2 16-16 16l-48 0 0 48c0 8.8-7.2 16-16 16l-32 0c-8.8 0-16-7.2-16-16l0-48-48 0c-8.8 0-16-7.2-16-16l0-32c0-8.8 7.2-16 16-16l48 0 0-48z"/></svg>

<svg xmlns="http://www.w3.org/2000/svg" viewBox="0 0 576 512"><!--! Font Awesome Pro 6.4.0 by @fontawesome - https://fontawesome.com License - https://fontawesome.com/license (Commercial License) Copyright 2023 Fonticons, Inc. --><path d="M0 64C0 28.7 28.7 0 64 0H512c35.3 0 64 28.7 64 64V352c0 35.3-28.7 64-64 64H336l10.7 32H416c17.7 0 32 14.3 32 32s-14.3 32-32 32H160c-17.7 0-32-14.3-32-32s14.3-32 32-32h69.3L240 416H64c-35.3 0-64-28.7-64-64V64zm64 0V352H512V64H64zm192 64c0-8.8 7.2-16 16-16h32c8.8 0 16 7.2 16 16v48h48c8.8 0 16 7.2 16 16v32c0 8.8-7.2 16-16 16H320v48c0 8.8-7.2 16-16 16H272c-8.8 0-16-7.2-16-16V240H208c-8.8 0-16-7.2-16-16V192c0-8.8 7.2-16 16-16h48V128z"/></svg>
